X: 21248
T: Keelman Ower The Land, The
R: waltz
M: 3/4
K: Amixolydian
|:ed/c/B/A/ e2a|ed/c/B/A/ e2a|fdB adB|fdB faa|
ecA ABc|caf ecA|B/c/d/c/B c/d/e/d/c|f2e faa:|
|:eea eea|eea edc|ffb ffb|ffb fed|
eea eea|Aaf ecA|B/c/d/c/B c/d/e/d/c|f2e fgaa:|
|:e/c/AA A/c/AA|e/c/AA A/c/AA|f/d/BB B/d/BB|f/d/BB B/d/BB|
ecA ABc|caf ecA|B/c/d/c/B c/d/e/d/c|f2e faa:|

